X: 1824
T: The Recruiting Officer
C:trad
B: australian traditional tunes wiki
M:6/4
L:1/8
R: Waltz
Q: 3/4=100
K:D
V:1 
A2|"D"d3ef2"A"e2c2A2|"D"d6A4F2|"G"G3AB2"D"A2F2D2|"A"E6A,4A2|
"D"d3ef2"A"e2c2A2|"Bm"d2f2B2"A"A4G2|"D"F2d2F2 "A"E2d2c2|"D"d6D4:|
|:e2|"D"f3ga2"A"e2c2A2|"G"g6"D"f6|"Bm"B3cd2"D"e2f2d2|"A"c6A4ag|
"D"f2d2c2"G"B2g2B2|"D"A2f2B2"A"A4G2|"D"F2d2F2"A"E2d2c2|"D"d6D4:|
% abcbook-tune_id 6342d53ab032ec511e8a1a7e


% abcbook-boost 0
% abcbook-tablature 
% abcbook-transpose 
% abcbook-lastupdated 1665324386202
% abcbook-soundfonts 
% abcbook-repeats 1
% NFF Book 2020
% Bush Traditions recording played by Roland Clarke

